X:1
T:Eternal Flame
C:Billy Steinberg
Z:All Rights Reserved
L:1/8
M:4/4
K:G
V:1 treble 
%%MIDI program 0
V:1
"G" z2 B, C/D/-"Em" D2 z2 |"C" DDED-"D" D2 G,A, |"G" z2 B, D/G/- G"Em7"GGG | %3
"C" EE z2"D" ED G, A,/B,/- |"Em7" B,2 GG"B7" F2 BB- |O"Em7" B2 z2"A7" EFGE |1"D" A3 D"Bm" D4 | %7
"Am7" D2 D2 DD z2 |"Em" D2 G2 F G2 D :|2"D" A3 D"Bm" D3 D ||"Am7" c2 B2 A G3 | c2 B2 A G2 A |: %12
"D" z2 A A/A/-"Dm" A2 z2 |"G/D" GG G F/G/- G/"D"F/D D<E |"F" =F2 z A G"G"D z/ D/D/D/ | %15
"C" E/=FE/- E"G/B" C/D/- D/"Am7"C/A,"C/G" z2 |"D" z2 DE"Bm7" FDEF |"F/C" A3 G"C" G4 |1"Dsus4" A8 | %19
"Em" G4"B7" z4 |"Em" z8 |"D" z8 |"Am7" z8 | z8 :|2"D""_D.C. al Coda (w. repeat)" E8 || %25
O"D" A3 D"Bm7" D3 D |"Am7" c2 B2 A G3 | c2 B2 A G2 d- |:"G" d8 |"C" DDED-"D" D2 G,A, | %30
"G" z2 B, D/G/- G"Em7"GGG |"C" EE z2"D" ED G, A,/B,/- |"Em7" B,2 GG"B7" F2 BB- | %33
"Em7" B2 z2"A7" EFGE |"D" A3 D"Bm" D4 |"Am7" c2 B2 A G3 | c2 B2 A G2 d- :| %37

